; generated by PrusaSlicer 2.2.0+win64 on 2021-01-08 at 01:02:46 UTC

; 

; external perimeters extrusion width = 0.45mm
; perimeters extrusion width = 0.45mm
; infill extrusion width = 0.45mm
; solid infill extrusion width = 0.45mm
; top infill extrusion width = 0.40mm
; first layer extrusion width = 0.42mm

M73 P0 R95
M73 Q0 S95
M201 X1000 Y1000 Z200 E5000 ; sets maximum accelerations, mm/sec^2
M203 X200 Y200 Z12 E120 ; sets maximum feedrates, mm/sec
M204 P1250 R1250 T1250 ; sets acceleration (P, T) and retract acceleration (R), mm/sec^2
M205 X8.00 Y8.00 Z0.40 E4.50 ; sets the jerk limits, mm/sec
M205 S0 T0 ; sets the minimum extruding and travel feed rate, mm/sec
M107
M862.3 P "MK3S" ; printer model check
M862.1 P0.4 ; nozzle diameter check
M115 U3.9.1 ; tell printer latest fw version
G90 ; use absolute coordinates
M83  ; extruder relative mode
M104 S160 ; set extruder to a temporary high enough temp
M140 S60 ; set bed temp
M190 S60 ; wait for bed temp
M109 S160 ; wait for extruder temporary high enough temp
G28 W ; home all without mesh bed level
G80 ; mesh bed leveling
G1 Y-3.0 F1000.0 ; go outside print area
M104 S215 ; set extruder actual required temp
M109 S215 ; wait for extruder actual required temp
G1 X60.0 E9.0  F1000.0 ; intro line
M73 Q0 S95
M73 P0 R95
G1 X100.0 E12.5  F1000.0 ; intro line
G92 E0.0
M221 S95

; Don't change E values below. Excessive value can damage the printer.

M907 E538 ; set extruder motor current
G21 ; set units to millimeters
G90 ; use absolute coordinates
M83 ; use relative distances for extrusion
M900 K0.05 ; Filament gcode LA 1.5
M900 K30 ; Filament gcode LA 1.0
;BEFORE_LAYER_CHANGE
G92 E0.0
;0.2


G1 E-0.80000 F2100.00000
G1 Z0.600 F10800.000
;AFTER_LAYER_CHANGE
;0.2
G1 X97.388 Y79.123
G1 Z0.200
G1 E0.80000 F2100.00000
M204 S1000
G1 F1200.000
G1 X98.963 Y77.798 E0.06451
G1 X100.633 Y76.895 E0.05954
G1 X102.464 Y76.326 E0.06013
G1 X104.134 Y76.137 E0.05269
G1 X145.554 Y76.123 E1.29868
G1 X147.471 Y76.313 E0.06042
G1 X149.279 Y76.858 E0.05921
G1 X150.981 Y77.760 E0.06037
G1 X152.337 Y78.853 E0.05461
G1 X153.847 Y80.701 E0.07483
G1 X154.645 Y82.228 E0.05403
G1 X155.214 Y84.192 E0.06411
G1 X155.377 Y85.941 E0.05509
G1 X155.373 Y124.183 E1.19905
G1 X155.185 Y125.981 E0.05668
G1 X154.632 Y127.801 E0.05964
G1 X153.733 Y129.490 E0.05999
G1 X152.611 Y130.878 E0.05597
G1 X151.034 Y132.204 E0.06461
G1 X149.333 Y133.120 E0.06057
G1 X147.472 Y133.687 E0.06100
G1 X145.559 Y133.877 E0.06028
G1 X104.313 Y133.873 E1.29323
G1 X102.519 Y133.685 E0.05656
G1 X100.695 Y133.131 E0.05976
G1 X99.010 Y132.233 E0.05987
G1 X97.622 Y131.111 E0.05597
G1 X96.296 Y129.534 E0.06461
G1 X95.380 Y127.833 E0.06057
G1 X94.813 Y125.972 E0.06100
G1 X94.623 Y124.062 E0.06016
G1 X94.627 Y85.805 E1.19952
G1 X94.814 Y84.024 E0.05615
G1 X95.369 Y82.196 E0.05989
G1 X96.266 Y80.510 E0.05989
G1 X97.350 Y79.169 E0.05407
G1 F8640.000
G1 X98.963 Y77.798 E-0.48868
G1 X99.996 Y77.239 E-0.27132
G1 E-0.04000 F2100.00000
G1 Z0.800 F10800.000
G1 X141.653 Y102.213
G1 Z0.200
G1 E0.80000 F2100.00000
G1 F1200.000
G1 X141.653 Y107.787 E0.17477
G1 X140.503 Y107.787 E0.03605
G1 X140.152 Y109.439 E0.05296
G1 X139.310 Y111.672 E0.07482
G1 X138.142 Y113.752 E0.07482
G1 X136.673 Y115.633 E0.07482
G1 X134.937 Y117.270 E0.07482
G1 X132.974 Y118.628 E0.07482
G1 X130.830 Y119.674 E0.07482
G1 X128.552 Y120.385 E0.07482
G1 X126.193 Y120.744 E0.07482
G1 X123.807 Y120.744 E0.07482
G1 X121.448 Y120.385 E0.07482
G1 X119.170 Y119.674 E0.07482
G1 X117.026 Y118.628 E0.07482
G1 X115.063 Y117.270 E0.07482
G1 X113.327 Y115.633 E0.07482
G1 X111.858 Y113.752 E0.07482
G1 X110.690 Y111.672 E0.07482
G1 X109.848 Y109.439 E0.07482
G1 X109.497 Y107.787 E0.05296
G1 X108.347 Y107.787 E0.03605
G1 X108.347 Y102.213 E0.17477
G1 X109.497 Y102.213 E0.03605
G1 X109.848 Y100.561 E0.05296
G1 X110.690 Y98.328 E0.07482
G1 X111.858 Y96.248 E0.07482
G1 X113.327 Y94.367 E0.07482
G1 X115.063 Y92.730 E0.07482
G1 X117.026 Y91.372 E0.07482
G1 X119.170 Y90.326 E0.07482
G1 X121.448 Y89.615 E0.07482
G1 X123.807 Y89.256 E0.07482
G1 X126.193 Y89.256 E0.07482
G1 X128.552 Y89.615 E0.07482
G1 X128.717 Y89.667 E0.00542
G1 X130.830 Y90.326 E0.06939
G1 X132.974 Y91.372 E0.07482
G1 X134.937 Y92.730 E0.07482
G1 X136.673 Y94.367 E0.07482
G1 X138.142 Y96.248 E0.07482
G1 X139.310 Y98.328 E0.07482
G1 X140.152 Y100.561 E0.07482
G1 X140.503 Y102.213 E0.05296
G1 X141.593 Y102.213 E0.03417
G1 X141.276 Y102.590 F10800.000
G1 F1200.000
G1 X141.276 Y107.410 E0.15113
G1 X140.198 Y107.410 E0.03380
G1 X139.790 Y109.333 E0.06164
G1 X138.968 Y111.512 E0.07302
G1 X137.827 Y113.543 E0.07302
G1 X136.393 Y115.378 E0.07303
G1 X134.699 Y116.976 E0.07302
G1 X132.783 Y118.301 E0.07303
G1 X130.690 Y119.322 E0.07302
G1 X128.467 Y120.016 E0.07302
G1 X126.165 Y120.367 E0.07302
G1 X123.835 Y120.367 E0.07302
G1 X121.533 Y120.016 E0.07302
G1 X121.395 Y119.973 E0.00453
G1 X119.310 Y119.322 E0.06850
G1 X117.217 Y118.301 E0.07302
G1 X115.301 Y116.976 E0.07303
G1 X113.607 Y115.378 E0.07302
G1 X112.173 Y113.543 E0.07302
G1 X111.032 Y111.512 E0.07302
G1 X110.210 Y109.333 E0.07302
G1 X109.802 Y107.410 E0.06164
G1 X108.724 Y107.410 E0.03380
G1 X108.724 Y102.590 E0.15113
G1 X109.802 Y102.590 E0.03380
G1 X110.210 Y100.667 E0.06164
G1 X111.032 Y98.488 E0.07302
G1 X112.173 Y96.457 E0.07302
G1 X113.607 Y94.622 E0.07303
G1 X115.301 Y93.024 E0.07302
G1 X117.217 Y91.699 E0.07303
G1 X119.310 Y90.678 E0.07302
G1 X121.533 Y89.984 E0.07302
G1 X123.835 Y89.633 E0.07302
G1 X126.165 Y89.633 E0.07302
G1 X128.467 Y89.984 E0.07302
G1 X128.605 Y90.027 E0.00453
G1 X130.690 Y90.678 E0.06850
G1 X132.783 Y91.699 E0.07302
G1 X134.699 Y93.024 E0.07303
G1 X136.393 Y94.622 E0.07302
G1 X137.827 Y96.457 E0.07302
G1 X138.968 Y98.488 E0.07302
G1 X139.790 Y100.667 E0.07302
G1 X140.198 Y102.590 E0.06164
G1 X141.216 Y102.590 E0.03192
G1 X141.658 Y102.710 F10800.000
G1 F8640.000
G1 X141.257 Y105.881 E-0.76000
G1 E-0.04000 F2100.00000
G1 Z0.800 F10800.000
G1 X152.213 Y102.590
G1 Z0.200
G1 E0.80000 F2100.00000
G1 F1200.000
G1 X152.213 Y124.011 E0.67165
G1 X152.081 Y125.349 E0.04215
G1 X151.702 Y126.598 E0.04093
G1 X151.087 Y127.750 E0.04093
G1 X150.259 Y128.759 E0.04093
G1 X149.250 Y129.587 E0.04093
G1 X148.098 Y130.202 E0.04093
G1 X146.849 Y130.581 E0.04093
G1 X145.511 Y130.713 E0.04215
G1 X104.489 Y130.713 E1.28624
G1 X103.151 Y130.581 E0.04215
G1 X101.902 Y130.202 E0.04093
G1 X100.750 Y129.587 E0.04093
G1 X99.741 Y128.759 E0.04093
G1 X98.913 Y127.750 E0.04093
G1 X98.298 Y126.598 E0.04093
G1 X97.919 Y125.349 E0.04093
G1 X97.787 Y124.011 E0.04215
G1 X97.787 Y85.989 E1.19217
G1 X97.919 Y84.651 E0.04216
G1 X98.298 Y83.401 E0.04094
G1 X98.913 Y82.250 E0.04092
G1 X99.741 Y81.241 E0.04093
G1 X100.750 Y80.413 E0.04093
G1 X101.906 Y79.795 E0.04110
G1 X103.148 Y79.419 E0.04066
G1 X104.484 Y79.287 E0.04212
G1 X145.546 Y79.289 E1.28745
G1 X146.852 Y79.419 E0.04117
G1 X148.094 Y79.795 E0.04067
G1 X149.250 Y80.413 E0.04110
G1 X150.259 Y81.241 E0.04093
G1 X151.087 Y82.250 E0.04093
G1 X151.702 Y83.401 E0.04092
G1 X152.081 Y84.651 E0.04095
G1 X152.213 Y85.989 E0.04215
G1 X152.213 Y102.530 E0.51864
G1 X152.590 Y102.530 F10800.000
G1 F1200.000
G1 X152.590 Y124.030 E0.67411
G1 X152.453 Y125.423 E0.04389
G1 X152.052 Y126.743 E0.04326
G1 X151.402 Y127.960 E0.04326
G1 X150.527 Y129.027 E0.04326
G1 X149.460 Y129.902 E0.04326
G1 X148.243 Y130.552 E0.04326
G1 X146.923 Y130.953 E0.04326
G1 X145.530 Y131.090 E0.04389
G1 X104.470 Y131.090 E1.28740
G1 X103.077 Y130.953 E0.04389
G1 X101.757 Y130.552 E0.04326
G1 X100.540 Y129.902 E0.04326
G1 X99.473 Y129.027 E0.04326
G1 X98.598 Y127.960 E0.04326
G1 X97.948 Y126.743 E0.04326
G1 X97.547 Y125.423 E0.04326
G1 X97.410 Y124.030 E0.04389
G1 X97.410 Y85.970 E1.19334
G1 X97.547 Y84.577 E0.04390
G1 X97.948 Y83.256 E0.04327
G1 X98.598 Y82.040 E0.04324
G1 X99.473 Y80.973 E0.04326
G1 X100.540 Y80.098 E0.04326
G1 X101.762 Y79.445 E0.04343
G1 X103.074 Y79.047 E0.04299
G1 X104.466 Y78.910 E0.04386
G1 X145.564 Y78.912 E1.28862
G1 X146.926 Y79.047 E0.04291
G1 X148.238 Y79.445 E0.04299
G1 X149.460 Y80.098 E0.04343
G1 X150.527 Y80.973 E0.04326
G1 X151.402 Y82.040 E0.04326
G1 X152.052 Y83.256 E0.04324
G1 X152.453 Y84.577 E0.04327
G1 X152.590 Y85.970 E0.04390
G1 X152.590 Y102.470 E0.51734
G1 X152.244 Y102.731 F10800.000
G1 F8640.000
G1 X152.590 Y105.761 E-0.76000
G1 E-0.04000 F2100.00000
G1 Z0.800 F10800.000
G1 X141.333 Y102.100
G1 Z0.200
G1 E0.80000 F2100.00000
G1 F1200.000
G1 X140.396 Y101.163 E0.04161
G1 F8640.000
G1 X141.333 Y102.100 E-0.30584
G1 E-0.49416 F2100.00000
G1 Z0.800 F10800.000
G1 X136.275 Y93.837
G1 Z0.200
G1 E0.80000 F2100.00000
G1 F1200.000
G1 X122.009 Y79.571 E0.63374
G1 X121.475 Y79.571 E0.01678
G1 X132.950 Y91.046 E0.50976
G1 X131.907 Y90.537 E0.03645
G1 X120.940 Y79.571 E0.48716
G1 X120.406 Y79.571 E0.01678
G1 X130.882 Y90.046 E0.46537
G1 X130.105 Y89.804 E0.02556
G1 X119.872 Y79.570 E0.45460
G1 X119.338 Y79.570 E0.01678
G1 X129.329 Y89.562 E0.44383
G1 X128.564 Y89.331 E0.02508
G1 X118.803 Y79.570 E0.43360
G1 X118.269 Y79.570 E0.01678
G1 X127.934 Y89.235 E0.42933
G1 X127.303 Y89.139 E0.02003
G1 X117.735 Y79.570 E0.42506
G1 X117.200 Y79.570 E0.01678
G1 X126.673 Y89.043 E0.42080
G1 X126.215 Y88.973 E0.01457
G1 X126.069 Y88.973 E0.00457
G1 X116.666 Y79.570 E0.41769
G1 X116.132 Y79.570 E0.01678
G1 X125.535 Y88.973 E0.41769
G1 X125.000 Y88.973 E0.01678
G1 X115.598 Y79.570 E0.41769
G1 X115.063 Y79.570 E0.01678
G1 X124.466 Y88.973 E0.41769
G1 X123.932 Y88.973 E0.01678
G1 X114.529 Y79.570 E0.41770
G1 X113.995 Y79.570 E0.01678
G1 X123.449 Y89.024 E0.41997
G1 X122.985 Y89.095 E0.01473
G1 X113.461 Y79.570 E0.42311
M73 Q1 S94
M73 P1 R94
G1 X112.926 Y79.570 E0.01678
G1 X122.522 Y89.166 E0.42626
G1 X122.058 Y89.236 E0.01473
G1 X112.392 Y79.570 E0.42940
G1 X111.858 Y79.570 E0.01678
G1 X121.595 Y89.307 E0.43254
G1 X121.384 Y89.339 E0.00669
G1 X121.162 Y89.408 E0.00732
G1 X111.324 Y79.570 E0.43704
G1 X110.789 Y79.570 E0.01678
G1 X120.755 Y89.536 E0.44269
G1 X120.348 Y89.663 E0.01340
G1 X110.255 Y79.570 E0.44834
G1 X109.721 Y79.570 E0.01678
G1 X119.940 Y89.790 E0.45398
G1 X119.533 Y89.917 E0.01340
G1 X109.186 Y79.570 E0.45963
G1 X108.652 Y79.570 E0.01678
G1 X119.126 Y90.044 E0.46528
G1 X118.760 Y90.212 E0.01266
G1 X108.118 Y79.570 E0.47274
G1 X107.584 Y79.570 E0.01678
G1 X118.401 Y90.387 E0.48052
G1 X118.042 Y90.562 E0.01255
G1 X107.049 Y79.570 E0.48830
G1 X106.515 Y79.570 E0.01678
G1 X117.683 Y90.737 E0.49608
G1 X117.323 Y90.912 E0.01255
G1 X105.981 Y79.570 E0.50387
G1 X105.447 Y79.570 E0.01678
G1 X116.964 Y91.088 E0.51165
G1 X116.639 Y91.296 E0.01215
G1 X104.912 Y79.570 E0.52091
G1 X104.498 Y79.570 E0.01301
G1 X104.389 Y79.581 E0.00345
G1 X116.323 Y91.515 E0.53014
G1 X116.007 Y91.733 E0.01206
G1 X103.903 Y79.629 E0.53771
G1 X103.416 Y79.677 E0.01535
G1 X115.691 Y91.951 E0.54529
G1 X115.375 Y92.170 E0.01206
G1 X102.973 Y79.767 E0.55096
G1 X102.563 Y79.892 E0.01346
G1 X115.060 Y92.388 E0.55514
G1 X114.885 Y92.509 E0.00668
G1 X114.762 Y92.625 E0.00529
G1 X102.153 Y80.016 E0.56013
G1 X102.015 Y80.058 E0.00452
G1 X101.784 Y80.181 E0.00824
G1 X114.487 Y92.884 E0.56431
G1 X114.212 Y93.144 E0.01187
G1 X101.436 Y80.367 E0.56756
G1 X101.088 Y80.553 E0.01240
G1 X113.937 Y93.403 E0.57082
G1 X113.662 Y93.662 E0.01187
G1 X100.766 Y80.766 E0.57289
G1 X100.473 Y81.007 E0.01192
G1 X113.388 Y93.922 E0.57372
G1 X113.113 Y94.182 E0.01187
G1 X100.179 Y81.248 E0.57457
G1 X99.896 Y81.499 E0.01189
G1 X112.879 Y94.482 E0.57675
G1 X112.645 Y94.782 E0.01196
G1 X99.655 Y81.792 E0.57704
G1 X99.414 Y82.085 E0.01192
G1 X112.410 Y95.082 E0.57733
G1 X112.176 Y95.382 E0.01196
G1 X99.173 Y82.379 E0.57762
G1 X98.982 Y82.722 E0.01233
G1 X111.942 Y95.682 E0.57572
G1 X111.708 Y95.982 E0.01196
G1 X98.796 Y83.070 E0.57358
G1 X98.610 Y83.418 E0.01240
G1 X111.500 Y96.308 E0.57262
G1 X111.308 Y96.650 E0.01232
G1 X98.469 Y83.811 E0.57034
G1 X98.345 Y84.221 E0.01345
G1 X111.116 Y96.992 E0.56732
G1 X110.923 Y97.334 E0.01232
G1 X98.220 Y84.631 E0.56431
G1 X98.198 Y84.706 E0.00246
G1 X98.158 Y85.104 E0.01255
G1 X110.731 Y97.676 E0.55852
G1 X110.539 Y98.019 E0.01232
G1 X98.111 Y85.590 E0.55211
G1 X98.070 Y86.084 E0.01556
G1 X110.367 Y98.381 E0.54629
G1 X110.221 Y98.769 E0.01302
G1 X98.070 Y86.618 E0.53979
G1 X98.070 Y87.152 E0.01678
G1 X110.075 Y99.157 E0.53329
G1 X109.928 Y99.545 E0.01302
G1 X98.070 Y87.686 E0.52679
G1 X98.070 Y88.221 E0.01678
G1 X109.782 Y99.933 E0.52029
G1 X109.636 Y100.321 E0.01302
G1 X98.070 Y88.755 E0.51379
G1 X98.070 Y89.289 E0.01678
G1 X109.520 Y100.740 E0.50867
G1 X109.427 Y101.180 E0.01415
G1 X98.070 Y89.823 E0.50451
G1 X98.070 Y90.358 E0.01678
G1 X109.333 Y101.621 E0.50035
G1 X109.267 Y101.930 E0.00993
G1 X109.108 Y101.930 E0.00500
G1 X98.070 Y90.892 E0.49035
G1 X98.070 Y91.426 E0.01678
G1 X108.574 Y101.930 E0.46662
G1 X108.064 Y101.930 E0.01602
G1 X108.064 Y101.954 E0.00076
G1 X98.070 Y91.960 E0.44397
G1 X98.070 Y92.495 E0.01678
G1 X108.064 Y102.489 E0.44397
G1 X108.064 Y103.023 E0.01678
G1 X98.070 Y93.029 E0.44397
G1 X98.070 Y93.563 E0.01678
G1 X108.064 Y103.557 E0.44397
G1 X108.064 Y104.091 E0.01678
G1 X98.070 Y94.097 E0.44397
G1 X98.070 Y94.632 E0.01678
G1 X108.064 Y104.626 E0.44397
G1 X108.064 Y105.160 E0.01678
G1 X98.070 Y95.166 E0.44397
G1 X98.070 Y95.700 E0.01678
G1 X108.064 Y105.694 E0.44397
G1 X108.064 Y106.228 E0.01678
G1 X98.070 Y96.234 E0.44397
G1 X98.070 Y96.768 E0.01678
G1 X108.064 Y106.763 E0.44397
G1 X108.064 Y107.297 E0.01678
G1 X97.900 Y97.133 E0.45151
G1 F8640.000
G1 X100.228 Y99.460 E-0.76000
G1 E-0.04000 F2100.00000
G1 Z0.800 F10800.000
G1 X108.667 Y107.900
G1 Z0.200
G1 E0.80000 F2100.00000
G1 F1200.000
G1 X109.384 Y108.617 E0.03182
G1 X109.528 Y109.295 E0.02179
G1 X98.070 Y97.837 E0.50899
G1 X98.070 Y98.371 E0.01678
G1 X109.792 Y110.093 E0.52073
G1 X110.115 Y110.951 E0.02879
G1 X98.070 Y98.905 E0.53510
G1 X98.070 Y99.440 E0.01678
G1 X110.446 Y111.816 E0.54979
G1 X111.131 Y113.035 E0.04393
G1 X98.070 Y99.974 E0.58022
G1 X98.070 Y100.508 E0.01678
G1 X112.162 Y114.601 E0.62603
G1 X113.118 Y115.824 E0.04875
G1 X114.885 Y117.491 E0.07630
G1 X115.429 Y117.867 E0.02078
G1 X127.992 Y130.430 E0.55809
G1 X128.526 Y130.430 E0.01678
G1 X117.050 Y118.954 E0.50979
M73 Q2 S93
M73 P2 R93
G1 X118.093 Y119.463 E0.03645
G1 X129.060 Y130.430 E0.48719
G1 X129.595 Y130.430 E0.01678
G1 X119.118 Y119.954 E0.46539
G1 X119.895 Y120.196 E0.02556
G1 X130.129 Y130.430 E0.45463
G1 X130.663 Y130.430 E0.01678
G1 X120.671 Y120.438 E0.44386
G1 X121.436 Y120.669 E0.02508
G1 X131.197 Y130.430 E0.43362
G1 X131.732 Y130.430 E0.01678
G1 X122.066 Y120.765 E0.42935
G1 X122.697 Y120.861 E0.02003
G1 X132.266 Y130.430 E0.42509
G1 X132.800 Y130.430 E0.01678
G1 X123.327 Y120.957 E0.42082
G1 X123.785 Y121.027 E0.01457
G1 X123.931 Y121.027 E0.00457
G1 X133.334 Y130.430 E0.41771
G1 X133.868 Y130.430 E0.01678
G1 X124.465 Y121.027 E0.41771
G1 X125.000 Y121.027 E0.01678
G1 X134.403 Y130.430 E0.41771
G1 X134.937 Y130.430 E0.01678
G1 X125.534 Y121.027 E0.41771
G1 X126.068 Y121.027 E0.01678
G1 X135.471 Y130.430 E0.41771
G1 X136.005 Y130.430 E0.01678
G1 X126.551 Y120.976 E0.41999
G1 X127.015 Y120.905 E0.01473
G1 X136.540 Y130.430 E0.42313
G1 X137.074 Y130.430 E0.01678
G1 X127.478 Y120.834 E0.42627
G1 X127.942 Y120.764 E0.01473
G1 X137.608 Y130.430 E0.42941
G1 X138.142 Y130.430 E0.01678
G1 X128.405 Y120.693 E0.43255
G1 X128.616 Y120.661 E0.00669
G1 X128.838 Y120.592 E0.00732
G1 X138.677 Y130.430 E0.43706
G1 X139.211 Y130.430 E0.01678
G1 X129.245 Y120.464 E0.44270
G1 X129.652 Y120.337 E0.01340
G1 X139.745 Y130.430 E0.44835
G1 X140.279 Y130.430 E0.01678
G1 X130.060 Y120.210 E0.45399
G1 X130.467 Y120.083 E0.01340
G1 X140.814 Y130.430 E0.45964
G1 X141.348 Y130.430 E0.01678
G1 X130.874 Y119.956 E0.46528
G1 X131.240 Y119.788 E0.01266
G1 X141.882 Y130.430 E0.47275
G1 X142.416 Y130.430 E0.01678
G1 X131.599 Y119.613 E0.48053
G1 X131.958 Y119.438 E0.01255
G1 X142.951 Y130.430 E0.48831
G1 X143.485 Y130.430 E0.01678
G1 X132.317 Y119.263 E0.49609
G1 X132.677 Y119.088 E0.01255
G1 X144.019 Y130.430 E0.50387
G1 X144.553 Y130.430 E0.01678
G1 X133.036 Y118.912 E0.51165
G1 X133.361 Y118.704 E0.01215
