; generated by PrusaSlicer 2.2.0+win64 on 2021-01-08 at 01:02:01 UTC

; 

; external perimeters extrusion width = 0.45mm
; perimeters extrusion width = 0.45mm
; infill extrusion width = 0.45mm
; solid infill extrusion width = 0.45mm
; top infill extrusion width = 0.40mm
; first layer extrusion width = 0.42mm

M73 P0 R59
M73 Q0 S60
M201 X1000 Y1000 Z200 E5000 ; sets maximum accelerations, mm/sec^2
M203 X200 Y200 Z12 E120 ; sets maximum feedrates, mm/sec
M204 P1250 R1250 T1250 ; sets acceleration (P, T) and retract acceleration (R), mm/sec^2
M205 X8.00 Y8.00 Z0.40 E4.50 ; sets the jerk limits, mm/sec
M205 S0 T0 ; sets the minimum extruding and travel feed rate, mm/sec
M107
M862.3 P "MK3S" ; printer model check
M862.1 P0.4 ; nozzle diameter check
M115 U3.9.1 ; tell printer latest fw version
G90 ; use absolute coordinates
M83  ; extruder relative mode
M104 S160 ; set extruder to a temporary high enough temp
M140 S60 ; set bed temp
M190 S60 ; wait for bed temp
M109 S160 ; wait for extruder temporary high enough temp
G28 W ; home all without mesh bed level
G80 ; mesh bed leveling
G1 Y-3.0 F1000.0 ; go outside print area
M104 S215 ; set extruder actual required temp
M109 S215 ; wait for extruder actual required temp
G1 X60.0 E9.0  F1000.0 ; intro line
M73 Q0 S60
M73 P0 R59
G1 X100.0 E12.5  F1000.0 ; intro line
G92 E0.0
M221 S95

; Don't change E values below. Excessive value can damage the printer.

M907 E538 ; set extruder motor current
G21 ; set units to millimeters
G90 ; use absolute coordinates
M83 ; use relative distances for extrusion
M900 K0.05 ; Filament gcode LA 1.5
M900 K30 ; Filament gcode LA 1.0
;BEFORE_LAYER_CHANGE
G92 E0.0
;0.2


G1 E-0.80000 F2100.00000
G1 Z0.600 F10800.000
;AFTER_LAYER_CHANGE
;0.2
G1 X116.525 Y84.526
G1 Z0.200
G1 E0.80000 F2100.00000
M204 S1000
G1 F1200.000
G1 X117.039 Y84.075 E0.02142
G1 X117.659 Y83.789 E0.02142
G1 X119.519 Y83.380 E0.05973
G1 X120.635 Y83.307 E0.03506
G1 X161.802 Y83.306 E1.29076
G1 X162.973 Y83.379 E0.03678
G1 X164.832 Y83.788 E0.05969
G1 X165.460 Y84.076 E0.02166
G1 X165.978 Y84.533 E0.02166
G1 X166.334 Y85.099 E0.02095
G1 X168.496 Y90.166 E0.17273
G1 X168.998 Y91.825 E0.05436
G1 X169.126 Y93.126 E0.04098
G1 X169.124 Y131.313 E1.19734
G1 X168.946 Y132.845 E0.04835
G1 X168.493 Y134.191 E0.04453
G1 X167.476 Y135.863 E0.06136
G1 X166.358 Y136.969 E0.04930
G1 X164.974 Y137.836 E0.05121
G1 X163.436 Y138.375 E0.05109
G1 X161.848 Y138.560 E0.05014
G1 X120.611 Y138.559 E1.29296
G1 X119.087 Y138.381 E0.04811
G1 X117.741 Y137.928 E0.04453
G1 X116.068 Y136.911 E0.06136
G1 X114.963 Y135.793 E0.04930
G1 X114.100 Y134.419 E0.05085
G1 X113.560 Y132.886 E0.05097
G1 X113.376 Y131.378 E0.04764
G1 X113.371 Y93.114 E1.19973
G1 X113.535 Y91.596 E0.04789
G1 X113.966 Y90.254 E0.04419
G1 X116.162 Y85.101 E0.17564
G1 X116.493 Y84.577 E0.01942
G1 F8640.000
G1 X117.039 Y84.075 E-0.17109
G1 X117.659 Y83.789 E-0.15776
G1 X119.483 Y83.388 E-0.43114
G1 E-0.04000 F2100.00000
G1 Z0.800 F10800.000
G1 X159.334 Y129.050
G1 Z0.200
G1 E0.80000 F2100.00000
G1 F1200.000
G1 X159.928 Y128.523 E0.02489
G1 X160.631 Y128.155 E0.02489
G1 X161.402 Y127.965 E0.02489
G1 X162.195 Y127.965 E0.02489
G1 X162.966 Y128.155 E0.02489
G1 X163.669 Y128.523 E0.02489
G1 X164.227 Y129.017 E0.02336
G1 X164.713 Y129.699 E0.02624
G1 X164.996 Y130.445 E0.02503
G1 X165.091 Y131.233 E0.02489
G1 X164.996 Y132.021 E0.02489
G1 X164.732 Y132.718 E0.02336
G1 X164.267 Y133.414 E0.02624
G1 X163.669 Y133.943 E0.02503
G1 X162.966 Y134.312 E0.02489
G1 X162.195 Y134.502 E0.02489
G1 X161.402 Y134.502 E0.02489
G1 X160.631 Y134.312 E0.02489
G1 X159.928 Y133.943 E0.02489
G1 X159.370 Y133.449 E0.02336
G1 X158.884 Y132.768 E0.02624
G1 X158.601 Y132.021 E0.02503
G1 X158.506 Y131.233 E0.02489
G1 X158.601 Y130.445 E0.02489
G1 X158.883 Y129.703 E0.02489
G1 X159.300 Y129.099 E0.02301
G1 X159.610 Y129.313 F10800.000
G1 F1200.000
G1 X160.144 Y128.836 E0.02245
G1 X160.766 Y128.510 E0.02202
G1 X161.447 Y128.342 E0.02202
G1 X162.150 Y128.342 E0.02202
G1 X162.831 Y128.510 E0.02202
G1 X163.453 Y128.836 E0.02202
G1 X163.944 Y129.271 E0.02058
G1 X164.377 Y129.878 E0.02337
G1 X164.627 Y130.536 E0.02207
G1 X164.711 Y131.233 E0.02202
G1 X164.627 Y131.931 E0.02202
G1 X164.394 Y132.544 E0.02058
G1 X163.980 Y133.164 E0.02337
G1 X163.453 Y133.631 E0.02207
G1 X162.831 Y133.957 E0.02202
G1 X162.150 Y134.125 E0.02202
G1 X161.447 Y134.125 E0.02202
G1 X160.766 Y133.957 E0.02202
G1 X160.144 Y133.631 E0.02202
G1 X159.652 Y133.196 E0.02058
G1 X159.220 Y132.589 E0.02337
G1 X158.970 Y131.931 E0.02207
G1 X158.885 Y131.233 E0.02202
G1 X158.970 Y130.536 E0.02202
G1 X159.219 Y129.880 E0.02202
G1 X159.576 Y129.363 E0.01969
G1 X159.482 Y128.934 F10800.000
G1 F8640.000
G1 X160.144 Y128.836 E-0.17884
G1 X160.766 Y128.510 E-0.16215
G1 X161.447 Y128.342 E-0.16215
G1 X162.150 Y128.342 E-0.16215
G1 X162.548 Y128.440 E-0.09471
G1 E-0.04000 F2100.00000
G1 Z0.800 F10800.000
G1 X123.167 Y95.314
G1 Z0.200
G1 E0.80000 F2100.00000
G1 F1200.000
G1 X122.569 Y95.843 E0.02503
G1 X121.866 Y96.212 E0.02489
G1 X121.095 Y96.402 E0.02489
G1 X120.302 Y96.402 E0.02489
G1 X119.531 Y96.212 E0.02489
G1 X118.828 Y95.843 E0.02489
G1 X118.234 Y95.317 E0.02489
G1 X117.783 Y94.664 E0.02489
G1 X117.501 Y93.921 E0.02489
G1 X117.406 Y93.133 E0.02489
G1 X117.501 Y92.345 E0.02489
G1 X117.765 Y91.649 E0.02336
G1 X118.230 Y90.953 E0.02624
G1 X118.828 Y90.423 E0.02503
G1 X119.531 Y90.055 E0.02489
G1 X120.302 Y89.865 E0.02489
G1 X121.095 Y89.865 E0.02489
G1 X121.866 Y90.055 E0.02489
G1 X122.569 Y90.423 E0.02489
G1 X123.127 Y90.917 E0.02336
G1 X123.613 Y91.599 E0.02624
G1 X123.896 Y92.345 E0.02503
G1 X123.991 Y93.133 E0.02489
G1 X123.896 Y93.921 E0.02489
G1 X123.632 Y94.618 E0.02336
G1 X123.200 Y95.264 E0.02436
G1 X122.886 Y95.055 F10800.000
G1 F1200.000
G1 X122.353 Y95.531 E0.02241
G1 X121.731 Y95.857 E0.02202
G1 X121.050 Y96.025 E0.02202
G1 X120.347 Y96.025 E0.02202
G1 X119.666 Y95.857 E0.02202
G1 X119.044 Y95.531 E0.02202
G1 X118.518 Y95.065 E0.02202
G1 X118.119 Y94.487 E0.02202
G1 X117.870 Y93.831 E0.02202
G1 X117.785 Y93.133 E0.02202
G1 X117.870 Y92.436 E0.02202
G1 X118.103 Y91.823 E0.02058
G1 X118.517 Y91.203 E0.02337
G1 X119.044 Y90.736 E0.02207
G1 X119.666 Y90.410 E0.02202
G1 X120.347 Y90.242 E0.02202
G1 X121.050 Y90.242 E0.02202
G1 X121.731 Y90.410 E0.02202
G1 X122.353 Y90.736 E0.02202
G1 X122.844 Y91.171 E0.02058
G1 X123.277 Y91.778 E0.02337
G1 X123.527 Y92.436 E0.02207
G1 X123.611 Y93.133 E0.02202
G1 X123.527 Y93.831 E0.02202
G1 X123.294 Y94.444 E0.02058
G1 X122.920 Y95.005 E0.02114
G1 X123.014 Y95.434 F10800.000
G1 F8640.000
G1 X122.353 Y95.531 E-0.17850
G1 X121.731 Y95.857 E-0.16215
G1 X121.050 Y96.025 E-0.16215
G1 X120.347 Y96.025 E-0.16215
G1 X119.948 Y95.927 E-0.09505
G1 E-0.04000 F2100.00000
G1 Z0.800 F10800.000
G1 X163.376 Y89.197
G1 Z0.200
G1 E0.80000 F2100.00000
G1 F1200.000
G1 X164.517 Y89.987 E0.04351
G1 X165.125 Y90.638 E0.02792
G1 X165.580 Y91.403 E0.02792
G1 X165.862 Y92.248 E0.02792
G1 X165.961 Y93.176 E0.02925
G1 X165.961 Y131.189 E1.19189
G1 X165.852 Y132.159 E0.03059
G1 X165.545 Y133.037 E0.02919
G1 X165.049 Y133.826 E0.02919
G1 X164.391 Y134.484 E0.02919
G1 X163.603 Y134.980 E0.02919
G1 X162.724 Y135.287 E0.02919
G1 X161.754 Y135.396 E0.03059
G1 X120.743 Y135.396 E1.28589
G1 X119.773 Y135.287 E0.03059
G1 X118.894 Y134.980 E0.02919
G1 X118.106 Y134.484 E0.02919
G1 X117.448 Y133.826 E0.02919
G1 X116.952 Y133.037 E0.02919
G1 X116.645 Y132.159 E0.02919
G1 X116.536 Y131.189 E0.03059
G1 X116.536 Y93.176 E1.19189
G1 X116.635 Y92.248 E0.02925
G1 X116.917 Y91.403 E0.02792
G1 X117.372 Y90.638 E0.02792
G1 X117.980 Y89.987 E0.02792
G1 X119.121 Y89.197 E0.04351
G1 X119.121 Y86.668 E0.07930
G1 X119.275 Y86.626 E0.00502
G1 X119.983 Y86.510 E0.02248
G1 X120.720 Y86.470 E0.02315
G1 X161.777 Y86.470 E1.28733
G1 X162.514 Y86.510 E0.02315
G1 X163.222 Y86.626 E0.02248
G1 X163.376 Y86.668 E0.00502
G1 X163.376 Y89.137 E0.07742
G1 X163.753 Y89.000 F10800.000
G1 F1200.000
G1 X164.765 Y89.700 E0.03859
G1 X165.428 Y90.410 E0.03046
G1 X165.925 Y91.246 E0.03046
G1 X166.232 Y92.167 E0.03046
G1 X166.338 Y93.155 E0.03116
G1 X166.338 Y131.210 E1.19319
G1 X166.222 Y132.243 E0.03258
G1 X165.887 Y133.202 E0.03186
G1 X165.346 Y134.062 E0.03186
G1 X164.628 Y134.781 E0.03186
G1 X163.767 Y135.321 E0.03186
G1 X162.808 Y135.657 E0.03186
G1 X161.775 Y135.773 E0.03258
G1 X120.722 Y135.773 E1.28722
G1 X119.689 Y135.657 E0.03258
G1 X118.730 Y135.321 E0.03186
G1 X117.869 Y134.781 E0.03186
G1 X117.151 Y134.062 E0.03186
G1 X116.610 Y133.202 E0.03186
G1 X116.275 Y132.243 E0.03186
G1 X116.158 Y131.210 E0.03258
G1 X116.158 Y93.155 E1.19319
G1 X116.265 Y92.167 E0.03116
G1 X116.572 Y91.246 E0.03046
G1 X117.069 Y90.410 E0.03046
G1 X117.732 Y89.700 E0.03046
G1 X118.743 Y89.000 E0.03859
G1 X118.743 Y86.381 E0.08211
G1 X119.194 Y86.257 E0.01466
G1 X119.942 Y86.135 E0.02376
G1 X120.710 Y86.093 E0.02410
G1 X161.787 Y86.093 E1.28797
G1 X162.555 Y86.135 E0.02410
G1 X163.303 Y86.257 E0.02376
G1 X163.753 Y86.381 E0.01466
G1 X163.753 Y88.940 E0.08023
G1 X163.617 Y89.376 F10800.000
G1 F8640.000
G1 X164.765 Y89.700 E-0.29226
G1 X165.428 Y90.410 E-0.22435
G1 X165.925 Y91.246 E-0.22435
G1 X165.951 Y91.324 E-0.01904
G1 E-0.04000 F2100.00000
G1 Z0.800 F10800.000
G1 X163.263 Y87.512
G1 Z0.200
G1 E0.80000 F2100.00000
G1 F1200.000
G1 X162.555 Y86.803 E0.03143
G1 X161.983 Y86.765 E0.01797
G1 X163.094 Y87.876 E0.04926
G1 X163.094 Y88.409 E0.01672
G1 X161.438 Y86.753 E0.07342
G1 X160.905 Y86.753 E0.01672
G1 X163.094 Y88.942 E0.09707
G1 X163.094 Y89.346 E0.01265
G1 X164.331 Y90.202 E0.04720
G1 X164.897 Y90.809 E0.02601
G1 X165.321 Y91.522 E0.02601
G1 X165.412 Y91.794 E0.00900
G1 X160.371 Y86.753 E0.22353
G1 X159.838 Y86.753 E0.01672
G1 X165.607 Y92.522 E0.25581
G1 X165.671 Y93.119 E0.01885
G1 X159.305 Y86.753 E0.28231
G1 X158.771 Y86.753 E0.01672
G1 X165.679 Y93.660 E0.30630
G1 X165.679 Y94.194 E0.01672
G1 X158.238 Y86.753 E0.32995
G1 X157.705 Y86.753 E0.01672
G1 X165.679 Y94.727 E0.35360
G1 X165.679 Y95.260 E0.01672
G1 X157.171 Y86.753 E0.37725
G1 X156.638 Y86.753 E0.01672
G1 X165.679 Y95.794 E0.40090
G1 X165.679 Y96.327 E0.01672
G1 X156.105 Y86.753 E0.42455
G1 X155.572 Y86.753 E0.01672
G1 X165.679 Y96.860 E0.44820
G1 X165.679 Y97.394 E0.01672
G1 X155.038 Y86.753 E0.47185
G1 X154.505 Y86.753 E0.01672
G1 X165.679 Y97.927 E0.49550
G1 X165.679 Y98.460 E0.01672
G1 X153.972 Y86.753 E0.51915
G1 X153.438 Y86.753 E0.01672
G1 X165.679 Y98.994 E0.54280
G1 X165.679 Y99.527 E0.01672
G1 X152.905 Y86.753 E0.56645
G1 X152.372 Y86.753 E0.01672
G1 X165.679 Y100.060 E0.59010
G1 X165.679 Y100.594 E0.01672
G1 X151.838 Y86.753 E0.61375
G1 X151.305 Y86.753 E0.01672
G1 X165.679 Y101.127 E0.63740
G1 X165.679 Y101.660 E0.01672
G1 X150.772 Y86.753 E0.66105
G1 X150.238 Y86.753 E0.01672
G1 X165.679 Y102.193 E0.68469
G1 X165.679 Y102.727 E0.01672
G1 X149.705 Y86.753 E0.70834
G1 X149.172 Y86.753 E0.01672
G1 X165.679 Y103.260 E0.73199
G1 X165.679 Y103.793 E0.01672
G1 X148.638 Y86.753 E0.75564
M73 Q1 S59
G1 X148.105 Y86.753 E0.01672
G1 X165.679 Y104.327 E0.77929
M73 P1 R58
G1 X165.679 Y104.860 E0.01672
G1 X147.572 Y86.753 E0.80294
G1 X147.039 Y86.753 E0.01672
G1 X165.679 Y105.393 E0.82659
G1 X165.679 Y105.927 E0.01672
G1 X146.505 Y86.753 E0.85024
G1 X145.972 Y86.753 E0.01672
G1 X165.679 Y106.460 E0.87389
G1 X165.679 Y106.993 E0.01672
G1 X145.439 Y86.753 E0.89754
G1 X144.905 Y86.753 E0.01672
G1 X165.679 Y107.527 E0.92119
G1 X165.679 Y108.060 E0.01672
G1 X144.372 Y86.753 E0.94484
G1 X143.839 Y86.753 E0.01672
G1 X165.679 Y108.593 E0.96849
G1 X165.679 Y109.126 E0.01672
G1 X143.305 Y86.753 E0.99214
G1 X142.772 Y86.753 E0.01672
G1 X165.679 Y109.660 E1.01579
G1 X165.679 Y110.193 E0.01672
G1 X142.239 Y86.753 E1.03944
G1 X141.705 Y86.753 E0.01672
G1 X165.679 Y110.726 E1.06309
G1 X165.679 Y111.260 E0.01672
G1 X141.172 Y86.753 E1.08674
G1 X140.639 Y86.753 E0.01672
G1 X165.679 Y111.793 E1.11039
G1 X165.679 Y112.326 E0.01672
G1 X140.106 Y86.753 E1.13404
G1 X139.572 Y86.753 E0.01672
G1 X165.679 Y112.860 E1.15769
G1 X165.679 Y113.393 E0.01672
G1 X139.039 Y86.753 E1.18134
G1 X138.506 Y86.753 E0.01672
G1 X165.679 Y113.926 E1.20499
G1 X165.679 Y114.460 E0.01672
G1 X137.972 Y86.753 E1.22864
G1 X137.439 Y86.753 E0.01672
G1 X165.679 Y114.993 E1.25229
G1 X165.679 Y115.526 E0.01672
G1 X136.906 Y86.753 E1.27594
G1 X136.372 Y86.753 E0.01672
G1 X165.679 Y116.060 E1.29959
G1 X165.679 Y116.593 E0.01672
G1 X135.839 Y86.753 E1.32324
G1 X135.306 Y86.753 E0.01672
G1 X165.679 Y117.126 E1.34689
G1 X165.679 Y117.659 E0.01672
G1 X134.772 Y86.753 E1.37054
G1 X134.239 Y86.753 E0.01672
G1 X165.679 Y118.193 E1.39419
G1 X165.679 Y118.726 E0.01672
G1 X133.706 Y86.753 E1.41784
G1 X133.172 Y86.753 E0.01672
G1 X165.679 Y119.259 E1.44149
G1 X165.679 Y119.793 E0.01672
G1 X132.639 Y86.753 E1.46513
G1 X132.106 Y86.753 E0.01672
G1 X165.679 Y120.326 E1.48878
G1 X165.679 Y120.859 E0.01672
G1 X131.573 Y86.753 E1.51243
G1 X131.039 Y86.753 E0.01672
G1 X165.679 Y121.393 E1.53608
M73 Q3 S58
M73 P3 R57
G1 X165.679 Y121.926 E0.01672
G1 X130.506 Y86.753 E1.55973
G1 X129.973 Y86.753 E0.01672
G1 X165.679 Y122.459 E1.58338
G1 X165.679 Y122.993 E0.01672
G1 X129.439 Y86.753 E1.60703
G1 X128.906 Y86.753 E0.01672
G1 X165.679 Y123.526 E1.63068
G1 X165.679 Y124.059 E0.01672
G1 X128.373 Y86.753 E1.65433
G1 X127.839 Y86.753 E0.01672
G1 X165.679 Y124.593 E1.67798
G1 X165.679 Y125.126 E0.01672
G1 X127.306 Y86.753 E1.70163
G1 X126.773 Y86.753 E0.01672
G1 X165.679 Y125.659 E1.72528
G1 X165.679 Y126.192 E0.01672
G1 X126.239 Y86.753 E1.74893
G1 X125.706 Y86.753 E0.01672
G1 X165.679 Y126.726 E1.77258
G1 X165.679 Y127.259 E0.01672
G1 X125.173 Y86.753 E1.79623
G1 X124.639 Y86.753 E0.01672
G1 X165.679 Y127.792 E1.81988
G1 X165.679 Y128.326 E0.01672
G1 X124.106 Y86.753 E1.84353
G1 X123.573 Y86.753 E0.01672
G1 X165.679 Y128.859 E1.86718
G1 X165.679 Y129.392 E0.01672
G1 X123.040 Y86.753 E1.89083
G1 X122.506 Y86.753 E0.01672
G1 X165.679 Y129.926 E1.91448
G1 X165.679 Y130.459 E0.01672
G1 X165.074 Y129.854 E0.02681
G1 X165.272 Y130.377 E0.01754
G1 X165.301 Y130.615 E0.00750
G1 X165.679 Y130.992 E0.01674
G1 X165.679 Y131.173 E0.00568
G1 X165.643 Y131.490 E0.00999
G1 X165.375 Y131.222 E0.01189
G1 X165.320 Y131.700 E0.01509
G1 X165.589 Y131.969 E0.01194
G1 X165.575 Y132.095 E0.00398
G1 X165.473 Y132.386 E0.00967
G1 X165.246 Y132.159 E0.01007
G1 X165.099 Y132.546 E0.01297
G1 X165.335 Y132.782 E0.01044
G1 X165.288 Y132.914 E0.00440
G1 X165.151 Y133.132 E0.00806
G1 X164.938 Y132.918 E0.00947
G1 X164.724 Y133.238 E0.01206
G1 X164.946 Y133.459 E0.00982
G1 X164.827 Y133.648 E0.00701
G1 X164.714 Y133.761 E0.00499
G1 X164.511 Y133.558 E0.00902
G1 X164.237 Y133.818 E0.01183
G1 X164.448 Y134.028 E0.00932
G1 X164.173 Y134.287 E0.01183
G1 X163.955 Y134.068 E0.00970
G1 X163.831 Y134.178 E0.00519
G1 X163.634 Y134.281 E0.00696
G1 X163.846 Y134.493 E0.00939
G1 X163.518 Y134.698 E0.01213
G1 X163.284 Y134.465 E0.01037
G1 X163.067 Y134.579 E0.00770
G1 X162.905 Y134.619 E0.00523
G1 X163.131 Y134.845 E0.01003
G1 X162.736 Y134.983 E0.01312
G1 X162.477 Y134.724 E0.01149
G1 X162.230 Y134.785 E0.00800
G1 X162.005 Y134.785 E0.00705
G1 X162.273 Y135.053 E0.01189
G1 X161.794 Y135.107 E0.01512
G1 X161.472 Y134.785 E0.01429
G1 X161.367 Y134.785 E0.00328
G1 X160.798 Y134.645 E0.01838
G1 X161.267 Y135.114 E0.02079
G1 X160.734 Y135.114 E0.01672
G1 X122.053 Y96.433 E1.71527
G1 X122.403 Y96.250 E0.01239
G1 X158.375 Y132.221 E1.59516
G1 X158.325 Y132.090 E0.00442
G1 X158.262 Y131.576 E0.01624
G1 X122.749 Y96.062 E1.57485
G1 X123.031 Y95.811 E0.01185
G1 X158.246 Y131.026 E1.56159
G1 X158.304 Y130.550 E0.01502
G1 X123.314 Y95.561 E1.55161
G1 X123.382 Y95.501 E0.00282
G1 X123.544 Y95.258 E0.00919
G1 X158.418 Y130.131 E1.54647
M73 Q5 S57
M73 P5 R56
G1 X158.565 Y129.745 E0.01297
G1 X123.758 Y94.938 E1.54351
G1 X123.885 Y94.748 E0.00715
G1 X123.944 Y94.591 E0.00528
G1 X158.750 Y129.397 E1.54348
G1 X158.968 Y129.082 E0.01202
G1 X124.091 Y94.204 E1.54664
G1 X124.172 Y93.990 E0.00720
G1 X124.198 Y93.778 E0.00668
G1 X159.205 Y128.786 E1.55241
G1 X159.488 Y128.535 E0.01185
G1 X124.256 Y93.303 E1.56239
